images/ui/search.svg

<svg height="16" viewBox="0 0 16 16" width="16" xmlns="http://www.w3.org/2000/svg"><path d="m11.038136 9.94904865 2.9599611 2.95996105-1.0606602 1.0606602-2.95567165-2.9556716c-.83251442.6194385-1.86433212.9860017-2.98176525.9860017-2.76142375 0-5-2.23857625-5-5s2.23857625-5 5-5 5 2.23857625 5 5c0 1.1028408-.357052 2.12228765-.961864 2.94904865zm-4.038136 1.05095135c2.209139 0 4-1.790861 4-4s-1.790861-4-4-4-4 1.790861-4 4 1.790861 4 4 4z" fill="#a6a6a6" fill-rule="evenodd"/></svg>

<svg xmlns="http://www.w3.org/2000/svg" width="16" height="16" viewBox="0 0 16 16">
  <path fill="#A6A6A6" fill-rule="evenodd" d="M11.038136,9.94904865 L13.9980971,12.9090097 L12.9374369,13.9696699 L9.98176525,11.0139983 C9.14925083,11.6334368 8.11743313,12 7,12 C4.23857625,12 2,9.76142375 2,7 C2,4.23857625 4.23857625,2 7,2 C9.76142375,2 12,4.23857625 12,7 C12,8.1028408 11.642948,9.12228765 11.038136,9.94904865 Z M7,11 C9.209139,11 11,9.209139 11,7 C11,4.790861 9.209139,3 7,3 C4.790861,3 3,4.790861 3,7 C3,9.209139 4.790861,11 7,11 Z"/>
</svg>
